apps/24/utilities-system-monitor.svg

<?xml version="1.0" encoding="UTF-8" standalone="no"?>
<!-- Created with Inkscape (http://www.inkscape.org/) -->

<svg
   xmlns:svg="http://www.w3.org/2000/svg"
   xmlns="http://www.w3.org/2000/svg"
   xmlns:xlink="http://www.w3.org/1999/xlink"
   version="1.0"
   width="24"
   height="24"
   id="svg3385">
  <defs
     id="defs3387">
    <radialGradient
       cx="605.71429"
       cy="486.64789"
       r="117.14286"
       fx="605.71429"
       fy="486.64789"
       id="radialGradient3976"
       xlink:href="#linearGradient5060"
       gradientUnits="userSpaceOnUse"
       gradientTransform="matrix(-2.774389,0,0,1.969706,112.7623,-872.8854)" />
    <linearGradient
       id="linearGradient5060">
      <stop
         id="stop5062"
         style="stop-color:black;stop-opacity:1"
         offset="0" />
      <stop
         id="stop5064"
         style="stop-color:black;stop-opacity:0"
         offset="1" />
    </linearGradient>
    <radialGradient
       cx="605.71429"
       cy="486.64789"
       r="117.14286"
       fx="605.71429"
       fy="486.64789"
       id="radialGradient2662"
       xlink:href="#linearGradient5060"
       gradientUnits="userSpaceOnUse"
       gradientTransform="matrix(2.774389,0,0,1.969706,-1891.633,-872.8854)" />
    <linearGradient
       id="linearGradient5048">
      <stop
         id="stop5050"
         style="stop-color:black;stop-opacity:0"
         offset="0" />
      <stop
         id="stop5056"
         style="stop-color:black;stop-opacity:1"
         offset="0.5" />
      <stop
         id="stop5052"
         style="stop-color:black;stop-opacity:0"
         offset="1" />
    </linearGradient>
    <linearGradient
       x1="302.85715"
       y1="366.64789"
       x2="302.85715"
       y2="609.50507"
       id="linearGradient2660"
       xlink:href="#linearGradient5048"
       gradientUnits="userSpaceOnUse"
       gradientTransform="matrix(2.774389,0,0,1.969706,-1892.179,-872.8854)" />
    <linearGradient
       id="linearGradient4008-764">
      <stop
         id="stop4334"
         style="stop-color:#595959;stop-opacity:1"
         offset="0" />
      <stop
         id="stop4336"
         style="stop-color:#b3b3b3;stop-opacity:1"
         offset="1" />
    </linearGradient>
    <linearGradient
       id="linearGradient3023">
      <stop
         id="stop3029"
         style="stop-color:#d8d8d8;stop-opacity:1"
         offset="0" />
      <stop
         id="stop3031"
         style="stop-color:#8f8f8f;stop-opacity:1"
         offset="1" />
    </linearGradient>
    <linearGradient
       id="linearGradient2238">
      <stop
         id="stop2240"
         style="stop-color:white;stop-opacity:1"
         offset="0" />
      <stop
         id="stop2242"
         style="stop-color:white;stop-opacity:0"
         offset="1" />
    </linearGradient>
    <linearGradient
       id="linearGradient4128">
      <stop
         id="stop4130"
         style="stop-color:#3d434a;stop-opacity:1"
         offset="0" />
      <stop
         id="stop4132"
         style="stop-color:black;stop-opacity:1"
         offset="1" />
    </linearGradient>
    <linearGradient
       id="linearGradient8265-821-176-38-919-66-249-2">
      <stop
         id="stop2687-1"
         style="stop-color:white;stop-opacity:1"
         offset="0" />
      <stop
         id="stop2689-3"
         style="stop-color:white;stop-opacity:0"
         offset="1" />
    </linearGradient>
    <filter
       x="-0.069845289"
       y="-0.15346897"
       width="1.1396906"
       height="1.3069379"
       color-interpolation-filters="sRGB"
       id="filter3499">
      <feGaussianBlur
         id="feGaussianBlur3501"
         stdDeviation="1.0231264" />
    </filter>
    <linearGradient
       x1="16.626165"
       y1="15.298182"
       x2="20.054544"
       y2="24.627615"
       id="linearGradient2426"
       xlink:href="#linearGradient8265-821-176-38-919-66-249-2"
       gradientUnits="userSpaceOnUse"
       gradientTransform="matrix(0.4789116,0,0,0.5359383,0.5061227,-0.1988816)" />
    <radialGradient
       cx="16.352173"
       cy="12.225069"
       r="19.170427"
       fx="16.352173"
       fy="12.225069"
       id="radialGradient2429"
       xlink:href="#linearGradient4128"
       gradientUnits="userSpaceOnUse"
       gradientTransform="matrix(0,0.4984012,-1.1479657,0,24.468551,1.8233917)" />
    <linearGradient
       x1="22.762604"
       y1="-4.8771"
       x2="22.762604"
       y2="43.84375"
       id="linearGradient2432"
       xlink:href="#linearGradient2238"
       gradientUnits="userSpaceOnUse"
       gradientTransform="matrix(0.4662133,0,0,0.4354479,0.8103191,1.987307)" />
    <linearGradient
       x1="13.423729"
       y1="2"
       x2="13.423729"
       y2="22.050611"
       id="linearGradient2435"
       xlink:href="#linearGradient3023"
       gradientUnits="userSpaceOnUse" />
    <linearGradient
       x1="10.591816"
       y1="44.780193"
       x2="10.591816"
       y2="2.4255774"
       id="linearGradient2437"
       xlink:href="#linearGradient4008-764"
       gradientUnits="userSpaceOnUse"
       gradientTransform="matrix(0.4893421,0,0,0.4639192,0.2558016,0.8602544)" />
  </defs>
  <g
     transform="matrix(0.01182016,0,0,0.00990682,22.513267,19.753927)"
     id="g5022">
    <rect
       width="1339.6335"
       height="478.35718"
       x="-1559.2523"
       y="-150.69685"
       id="rect2969"
       style="opacity:0.40206185;fill:url(#linearGradient2660);fill-opacity:1;fill-rule:nonzero;stroke:none;stroke-width:1;marker:none;visibility:visible;display:inline;overflow:visible" />
    <path
       d="m -219.61876,-150.68038 c 0,0 0,478.33079 0,478.33079 142.874166,0.90045 345.40022,-107.16966 345.40014,-239.196175 0,-132.026537 -159.436816,-239.134595 -345.40014,-239.134615 l 0,0 z"
       id="path2971"
       style="opacity:0.40206185;fill:url(#radialGradient2662);fill-opacity:1;fill-rule:nonzero;stroke:none;stroke-width:1;marker:none;visibility:visible;display:inline;overflow:visible" />
    <path
       d="m -1559.2523,-150.68038 c 0,0 0,478.33079 0,478.33079 -142.8742,0.90045 -345.4002,-107.16966 -345.4002,-239.196175 0,-132.026537 159.4368,-239.134595 345.4002,-239.134615 l 0,0 z"
       id="path2973"
       style="opacity:0.40206185;fill:url(#radialGradient3976);fill-opacity:1;fill-rule:nonzero;stroke:none;stroke-width:1;marker:none;visibility:visible;display:inline;overflow:visible" />
  </g>
  <rect
     width="22.997868"
     height="18.997868"
     rx="1.5917214"
     ry="1.5917214"
     x="0.5010668"
     y="2.5010664"
     id="rect1316"
     style="fill:url(#linearGradient2435);fill-opacity:1;fill-rule:evenodd;stroke:url(#linearGradient2437);stroke-width:1.00213301;stroke-linecap:round;stroke-linejoin:round;stroke-miterlimit:4;stroke-opacity:1;stroke-dasharray:none;stroke-dashoffset:0" />
  <rect
     width="20.997868"
     height="16.997868"
     rx="0.61766976"
     ry="0.61766976"
     x="1.5010667"
     y="3.5010667"
     id="rect2232"
     style="opacity:0.4;fill:none;stroke:url(#linearGradient2432);stroke-width:1.00213301;stroke-linecap:round;stroke-linejoin:round;stroke-miterlimit:4;stroke-opacity:1;stroke-dasharray:none;stroke-dashoffset:0" />
  <rect
     width="18.997868"
     height="14.997867"
     rx="0"
     ry="0"
     x="2.5010662"
     y="4.5010667"
     id="rect1314"
     style="fill:url(#radialGradient2429);fill-opacity:1;fill-rule:evenodd;stroke:#1e1f1f;stroke-width:1.00213289;stroke-linecap:round;stroke-linejoin:round;stroke-miterlimit:4;stroke-opacity:1;stroke-dasharray:none;stroke-dashoffset:0" />
  <path
     d="m 2.0476194,3.0000001 c -0.5786579,0 -1.0476191,0.5248032 -1.0476191,1.1723651 l 0,8.5750128 c 0.00133,0.07214 0.029596,0.140358 0.077943,0.188097 0.048347,0.04774 0.1123523,0.07063 0.176479,0.06312 L 22.805444,9.1800387 c 0.110858,-0.019566 0.193008,-0.1256417 0.194558,-0.2512211 l 0,-4.7564524 c 0,-0.6475619 -0.468962,-1.1723651 -1.04762,-1.1723651 l -19.9047626,0 0,0 z"
     id="path2976"
     style="opacity:0.2;fill:url(#linearGradient2426);fill-opacity:1;fill-rule:evenodd;stroke:none" />
  <path
     d="m -51.076451,15.112784 5.623521,0 2,-10 4,15 3,-9 3,6 3,-2 11.635138,0"
     transform="matrix(0.5269903,0,0,0.5333113,30.416794,5.2734598)"
     id="path3497"
     style="fill:none;stroke:#3a7d6b;stroke-width:3.77257872;stroke-linecap:round;stroke-linejoin:round;stroke-miterlimit:4;stroke-opacity:1;stroke-dasharray:none;filter:url(#filter3499)" />
  <path
     d="m 3.5,13.333277 2.9635414,0 1.0539805,-5.3331114 2.1079611,7.9996684 1.58097,-4.7998 1.580971,3.199866 1.580971,-1.066623 6.131605,0"
     id="path3477"
     style="fill:none;stroke:#5ad7b4;stroke-width:1;stroke-linecap:square;stroke-linejoin:round;stroke-miterlimit:4;stroke-opacity:1;stroke-dasharray:none" />
</svg>

<?xml version="1.0" encoding="UTF-8" standalone="no"?>
<!-- Created with Inkscape (http://www.inkscape.org/) -->
<svg
   xmlns:dc="http://purl.org/dc/elements/1.1/"
   xmlns:cc="http://creativecommons.org/ns#"
   xmlns:rdf="http://www.w3.org/1999/02/22-rdf-syntax-ns#"
   xmlns:svg="http://www.w3.org/2000/svg"
   xmlns="http://www.w3.org/2000/svg"
   xmlns:xlink="http://www.w3.org/1999/xlink"
   xmlns:sodipodi="http://sodipodi.sourceforge.net/DTD/sodipodi-0.dtd"
   xmlns:inkscape="http://www.inkscape.org/namespaces/inkscape"
   version="1.0"
   width="24"
   height="24"
   id="svg3385"
   sodipodi:version="0.32"
   inkscape:version="0.46"
   sodipodi:docname="utilities-system-monitor.svg"
   inkscape:output_extension="org.inkscape.output.svg.inkscape">
  <metadata
     id="metadata48">
    <rdf:RDF>
      <cc:Work
         rdf:about="">
        <dc:format>image/svg+xml</dc:format>
        <dc:type
           rdf:resource="http://purl.org/dc/dcmitype/StillImage" />
      </cc:Work>
    </rdf:RDF>
  </metadata>
  <sodipodi:namedview
     inkscape:window-height="794"
     inkscape:window-width="1440"
     inkscape:pageshadow="2"
     inkscape:pageopacity="0.0"
     guidetolerance="10.0"
     gridtolerance="10.0"
     objecttolerance="10.0"
     borderopacity="1.0"
     bordercolor="#666666"
     pagecolor="#ffffff"
     id="base"
     showgrid="false"
     inkscape:zoom="20.75"
     inkscape:cx="8.1160839"
     inkscape:cy="12"
     inkscape:window-x="0"
     inkscape:window-y="24"
     inkscape:current-layer="svg3385" />
  <defs
     id="defs3387">
    <radialGradient
       cx="605.71429"
       cy="486.64789"
       r="117.14286"
       fx="605.71429"
       fy="486.64789"
       id="radialGradient3976"
       xlink:href="#linearGradient5060"
       gradientUnits="userSpaceOnUse"
       gradientTransform="matrix(-2.774389,0,0,1.969706,112.7623,-872.8854)" />
    <linearGradient
       id="linearGradient5060">
      <stop
         id="stop5062"
         style="stop-color:#000000;stop-opacity:1"
         offset="0" />
      <stop
         id="stop5064"
         style="stop-color:#000000;stop-opacity:0"
         offset="1" />
    </linearGradient>
    <radialGradient
       cx="605.71429"
       cy="486.64789"
       r="117.14286"
       fx="605.71429"
       fy="486.64789"
       id="radialGradient2662"
       xlink:href="#linearGradient5060"
       gradientUnits="userSpaceOnUse"
       gradientTransform="matrix(2.774389,0,0,1.969706,-1891.633,-872.8854)" />
    <linearGradient
       id="linearGradient5048">
      <stop
         id="stop5050"
         style="stop-color:#000000;stop-opacity:0"
         offset="0" />
      <stop
         id="stop5056"
         style="stop-color:#000000;stop-opacity:1"
         offset="0.5" />
      <stop
         id="stop5052"
         style="stop-color:#000000;stop-opacity:0"
         offset="1" />
    </linearGradient>
    <linearGradient
       x1="302.85715"
       y1="366.64789"
       x2="302.85715"
       y2="609.50507"
       id="linearGradient2660"
       xlink:href="#linearGradient5048"
       gradientUnits="userSpaceOnUse"
       gradientTransform="matrix(2.774389,0,0,1.969706,-1892.179,-872.8854)" />
    <linearGradient
       id="linearGradient4008-764">
      <stop
         id="stop4334"
         style="stop-color:#595959;stop-opacity:1"
         offset="0" />
      <stop
         id="stop4336"
         style="stop-color:#b3b3b3;stop-opacity:1"
         offset="1" />
    </linearGradient>
    <linearGradient
       id="linearGradient3023">
      <stop
         id="stop3029"
         style="stop-color:#d8d8d8;stop-opacity:1"
         offset="0" />
      <stop
         id="stop3031"
         style="stop-color:#8f8f8f;stop-opacity:1"
         offset="1" />
    </linearGradient>
    <linearGradient
       id="linearGradient2238">
      <stop
         id="stop2240"
         style="stop-color:#ffffff;stop-opacity:1"
         offset="0" />
      <stop
         id="stop2242"
         style="stop-color:#ffffff;stop-opacity:0"
         offset="1" />
    </linearGradient>
    <linearGradient
       id="linearGradient4128">
      <stop
         id="stop4130"
         style="stop-color:#3d434a;stop-opacity:1"
         offset="0" />
      <stop
         id="stop4132"
         style="stop-color:#000000;stop-opacity:1"
         offset="1" />
    </linearGradient>
    <linearGradient
       id="linearGradient8265-821-176-38-919-66-249-2">
      <stop
         id="stop2687-1"
         style="stop-color:#ffffff;stop-opacity:1"
         offset="0" />
      <stop
         id="stop2689-3"
         style="stop-color:#ffffff;stop-opacity:0"
         offset="1" />
    </linearGradient>
    <filter
       height="1.3069379"
       y="-0.15346897"
       width="1.1396906"
       x="-0.069845289"
       id="filter3499">
      <feGaussianBlur
         id="feGaussianBlur3501"
         stdDeviation="1.0231264"
         inkscape:collect="always" />
    </filter>
    <linearGradient
       inkscape:collect="always"
       xlink:href="#linearGradient8265-821-176-38-919-66-249-2"
       id="linearGradient2426"
       gradientUnits="userSpaceOnUse"
       gradientTransform="matrix(0.4789116,0,0,0.5359383,0.5061227,-0.1988816)"
       x1="16.626165"
       y1="15.298182"
       x2="20.054544"
       y2="24.627615" />
    <radialGradient
       inkscape:collect="always"
       xlink:href="#linearGradient4128"
       id="radialGradient2429"
       gradientUnits="userSpaceOnUse"
       gradientTransform="matrix(0,0.4984012,-1.1479657,0,24.468551,1.8233917)"
       cx="16.352173"
       cy="12.225069"
       fx="16.352173"
       fy="12.225069"
       r="19.170427" />
    <linearGradient
       inkscape:collect="always"
       xlink:href="#linearGradient2238"
       id="linearGradient2432"
       gradientUnits="userSpaceOnUse"
       gradientTransform="matrix(0.4662133,0,0,0.4354479,0.8103191,1.987307)"
       x1="22.762604"
       y1="-4.8771"
       x2="22.762604"
       y2="43.84375" />
    <linearGradient
       inkscape:collect="always"
       xlink:href="#linearGradient3023"
       id="linearGradient2435"
       gradientUnits="userSpaceOnUse"
       x1="13.423729"
       y1="2"
       x2="13.423729"
       y2="22.050611" />
    <linearGradient
       inkscape:collect="always"
       xlink:href="#linearGradient4008-764"
       id="linearGradient2437"
       gradientUnits="userSpaceOnUse"
       gradientTransform="matrix(0.4893421,0,0,0.4639192,0.2558016,0.8602544)"
       x1="10.591816"
       y1="44.780193"
       x2="10.591816"
       y2="2.4255774" />
  </defs>
  <g
     id="g5022"
     transform="matrix(1.182016e-2,0,0,9.90682e-3,22.513267,19.753927)">
    <rect
       style="opacity:0.40206185;fill:url(#linearGradient2660);fill-opacity:1;fill-rule:nonzero;stroke:none;stroke-width:1;marker:none;visibility:visible;display:inline;overflow:visible"
       id="rect2969"
       y="-150.69685"
       x="-1559.2523"
       height="478.35718"
       width="1339.6335" />
    <path
       style="opacity:0.40206185;fill:url(#radialGradient2662);fill-opacity:1;fill-rule:nonzero;stroke:none;stroke-width:1;marker:none;visibility:visible;display:inline;overflow:visible"
       id="path2971"
       d="M -219.61876,-150.68038 C -219.61876,-150.68038 -219.61876,327.65041 -219.61876,327.65041 C -76.744594,328.55086 125.78146,220.48075 125.78138,88.454235 C 125.78138,-43.572302 -33.655436,-150.68036 -219.61876,-150.68038 L -219.61876,-150.68038 z" />
    <path
       style="opacity:0.40206185;fill:url(#radialGradient3976);fill-opacity:1;fill-rule:nonzero;stroke:none;stroke-width:1;marker:none;visibility:visible;display:inline;overflow:visible"
       id="path2973"
       d="M -1559.2523,-150.68038 C -1559.2523,-150.68038 -1559.2523,327.65041 -1559.2523,327.65041 C -1702.1265,328.55086 -1904.6525,220.48075 -1904.6525,88.454235 C -1904.6525,-43.572302 -1745.2157,-150.68036 -1559.2523,-150.68038 L -1559.2523,-150.68038 z" />
  </g>
  <rect
     style="fill:url(#linearGradient2435);fill-opacity:1;fill-rule:evenodd;stroke:url(#linearGradient2437);stroke-width:1.00213301;stroke-linecap:round;stroke-linejoin:round;stroke-miterlimit:4;stroke-dasharray:none;stroke-dashoffset:0;stroke-opacity:1"
     id="rect1316"
     y="2.5010664"
     x="0.5010668"
     ry="1.5917214"
     rx="1.5917214"
     height="18.997868"
     width="22.997868" />
  <rect
     style="opacity:0.4;fill:none;stroke:url(#linearGradient2432);stroke-width:1.00213301;stroke-linecap:round;stroke-linejoin:round;stroke-miterlimit:4;stroke-dasharray:none;stroke-dashoffset:0;stroke-opacity:1"
     id="rect2232"
     y="3.5010667"
     x="1.5010667"
     ry="0.61766976"
     rx="0.61766976"
     height="16.997868"
     width="20.997868" />
  <rect
     style="fill:url(#radialGradient2429);fill-opacity:1;fill-rule:evenodd;stroke:#1e1f1f;stroke-width:1.00213289;stroke-linecap:round;stroke-linejoin:round;stroke-miterlimit:4;stroke-dasharray:none;stroke-dashoffset:0;stroke-opacity:1"
     id="rect1314"
     y="4.5010667"
     x="2.5010662"
     ry="0"
     rx="0"
     height="14.997867"
     width="18.997868" />
  <path
     style="opacity:0.2;fill:url(#linearGradient2426);fill-opacity:1;fill-rule:evenodd;stroke:none"
     id="path2976"
     d="M 2.0476194,3.0000001 C 1.4689615,3.0000001 1.0000003,3.5248033 1.0000003,4.1723652 L 1.0000003,12.747378 C 1.0013303,12.819518 1.0295963,12.887736 1.0779433,12.935475 C 1.1262903,12.983215 1.1902956,13.006105 1.2544223,12.998595 L 22.805444,9.1800387 C 22.916302,9.1604727 22.998452,9.054397 23.000002,8.9288176 L 23.000002,4.1723652 C 23.000002,3.5248033 22.53104,3.0000001 21.952382,3.0000001 L 2.0476194,3.0000001 L 2.0476194,3.0000001 z" />
  <path
     style="fill:none;fill-rule:evenodd;stroke:#3a7d6b;stroke-width:3.77257872;stroke-linecap:round;stroke-linejoin:round;stroke-miterlimit:4;stroke-dasharray:none;stroke-opacity:1;filter:url(#filter3499)"
     id="path3497"
     transform="matrix(0.5269903,0,0,0.5333113,30.416794,5.2734598)"
     d="M -51.076451,15.112784 L -45.45293,15.112784 L -43.45293,5.112784 L -39.45293,20.112784 L -36.45293,11.112784 L -33.45293,17.112784 L -30.45293,15.112784 L -18.817792,15.112784" />
  <path
     style="fill:none;fill-rule:evenodd;stroke:#5ad7b4;stroke-width:1;stroke-linecap:square;stroke-linejoin:round;stroke-miterlimit:4;stroke-dasharray:none;stroke-opacity:1"
     id="path3477"
     d="M 3.5,13.333277 L 6.4635414,13.333277 L 7.5175219,8.0001656 L 9.625483,15.999834 L 11.206453,11.200034 L 12.787424,14.3999 L 14.368395,13.333277 L 20.5,13.333277" />
</svg>
